X:1
T:The Piper of Dundee
M:C
L:1/8
Q:80
C:arr. R. Bescherer, Jr.
S:Reel
K:HP
|: f2 | \
{gBd}B2{e}c2{Gdc}d2B2 | \
{g}f4{e}f2g2 |
a2B2c2d2 | \
e2{gcd}c2A2c2 | \
{gBd}B2{e}c2{Gdc}d2B2 |
{g}f4{e}f2g2 | \
f2{gef}e2d2{gcd}c2 | \
{e}B6 ::
A2 | \
{Gdc}d2{gdG}d2{g}d2f2 | \
{gef}e2{A}e2{g}e2f2 | \
{Gdc}d2{gdG}d2{g}d2f2 |
e2{gcd}c2{e}A2{g}A2 | \
{Gdc}d2{gdG}d2{g}d2f2 | \
{gef}e2{A}e2{g}e2g2 |
f2{gef}e2d2c2 | \
{gBd}B6 :|
